Sources/FrostedUI/Resources/Icons.xcassets/shieldHalf12.imageset/shield-half-12.svg

<svg width="12" height="12" viewBox="0 0 12 12" fill="none" xmlns="http://www.w3.org/2000/svg" data-fui-icon="true">
  <path
    fill-rule="evenodd"
    clip-rule="evenodd"
    d="M10.021 1.92451L6.39301 0.71452C6.14001 0.63052 5.862 0.63052 5.605 0.71452L1.979 1.92352C1.468 2.09452 1.125 2.57052 1.125 3.10852V5.95451C1.125 8.92351 3.631 10.2755 5.644 11.3615C5.755 11.4215 5.878 11.4515 6 11.4515C6.122 11.4515 6.245 11.4215 6.356 11.3615C8.369 10.2755 10.875 8.92351 10.875 5.95451V3.10852C10.875 2.57052 10.532 2.09451 10.021 1.92251V1.92451ZM9.375 5.95651C9.375 7.77451 7.995 8.75352 6 9.85052V2.16551L9.375 3.29051V5.95651Z"
    fill="currentColor"
  />
</svg>

<svg xmlns="http://www.w3.org/2000/svg" width="12" height="12" fill="none" data-fui-icon="true" viewBox="0 0 12 12"><path fill="currentColor" fill-rule="evenodd" d="M10.021 1.925 6.393.715a1.26 1.26 0 0 0-.788 0L1.979 1.924a1.25 1.25 0 0 0-.854 1.185v2.846c0 2.969 2.506 4.32 4.519 5.406a.75.75 0 0 0 .712 0c2.013-1.086 4.519-2.437 4.519-5.406V3.109a1.25 1.25 0 0 0-.854-1.186zm-.646 4.032c0 1.818-1.38 2.797-3.375 3.894V2.166L9.375 3.29z" clip-rule="evenodd"/></svg>
